images/language-mouserescale.svg

<?xml version="1.0" encoding="UTF-8" standalone="no"?>
<svg
   xmlns:dc="http://purl.org/dc/elements/1.1/"
   xmlns:cc="http://creativecommons.org/ns#"
   xmlns:rdf="http://www.w3.org/1999/02/22-rdf-syntax-ns#"
   xmlns:svg="http://www.w3.org/2000/svg"
   xmlns="http://www.w3.org/2000/svg"
   xmlns:sodipodi="http://sodipodi.sourceforge.net/DTD/sodipodi-0.dtd"
   xmlns:inkscape="http://www.inkscape.org/namespaces/inkscape"
   width="100mm"
   height="21.673294mm"
   id="SvgGdi_output"
   version="1.1"
   sodipodi:docname="mouserescale.svg"
   inkscape:version="0.92.3 (2405546, 2018-03-11)">
  <metadata
     id="metadata32">
    <rdf:RDF>
      <cc:Work
         rdf:about="">
        <dc:format>image/svg+xml</dc:format>
        <dc:type
           rdf:resource="http://purl.org/dc/dcmitype/StillImage" />
        <dc:title></dc:title>
      </cc:Work>
    </rdf:RDF>
  </metadata>
  <sodipodi:namedview
     pagecolor="#ffffff"
     bordercolor="#666666"
     borderopacity="1"
     objecttolerance="10"
     gridtolerance="10"
     guidetolerance="10"
     inkscape:pageopacity="0"
     inkscape:pageshadow="2"
     inkscape:window-width="1920"
     inkscape:window-height="1001"
     id="namedview30"
     showgrid="false"
     fit-margin-top="0"
     fit-margin-left="0"
     fit-margin-right="0"
     fit-margin-bottom="0"
     units="mm"
     inkscape:zoom="1.3087034"
     inkscape:cx="129.5175"
     inkscape:cy="32.544431"
     inkscape:window-x="-9"
     inkscape:window-y="-9"
     inkscape:window-maximized="1"
     inkscape:current-layer="SvgGdi_output" />
  <g
     id="root_group"
     style="shape-rendering:auto"
     transform="matrix(1.2585072,0,0,1.2585072,0,-2.0425151e-6)">
    <line
       x1="147.5"
       x2="200"
       y2="23.75"
       id="153"
       style="opacity:1;fill:none;stroke:#a9a9a9;stroke-width:1.25;stroke-linecap:butt;stroke-linejoin:miter;stroke-miterlimit:9"
       y1="23.75" />
    <line
       x1="47.5"
       x2="100"
       y2="23.75"
       id="154"
       style="opacity:1;fill:none;stroke:#a9a9a9;stroke-width:1.25;stroke-linecap:butt;stroke-linejoin:miter;stroke-miterlimit:9"
       y1="23.75" />
    <circle
       r="15"
       style="opacity:1;fill:#449adf;stroke:none"
       id="155"
       cx="15"
       cy="15"
       transform="matrix(1.25,0,0,1.25,205,5)" />
    <path
       inkscape:connector-curvature="0"
       style="opacity:1;fill:none;stroke:#ffffff;stroke-width:2;stroke-linecap:butt;stroke-linejoin:miter;stroke-miterlimit:9"
       id="156"
       transform="matrix(1.25,0,0,1.25,205,5)"
       d="M 20.824,23.115 V 7.098999 M 17.3572,17.48 v -4.7461 m -3.4668,8.4707 V 9.009602 M 10.4236,18.6248 V 11.5896 M 6.9568,16.3923 V 13.822" />
    <text
       x="205"
       y="48.75"
       id="157"
       style="font-size:13px;font-family:'Microsoft Sans Serif';opacity:1;fill:#000000;stroke:none"
       clip-path="url(#159_text_clipper)">
      <tspan
         id="161"
         dy="9.75pt">Rescale</tspan>
    </text>
    <circle
       r="15"
       style="opacity:1;fill:#449adf;stroke:none"
       id="163"
       cx="15"
       cy="15"
       transform="matrix(1.25,0,0,1.25,105,5)" />
    <path
       inkscape:connector-curvature="0"
       style="opacity:1;fill:#ffffff;fill-rule:evenodd;stroke:none"
       id="164"
       transform="matrix(1.25,0,0,1.25,105,5)"
       d="M 19.156,13.888 V 10.3647 6.841399 l 6.1025,3.523301 -3.0513,1.7617 z" />
    <path
       inkscape:connector-curvature="0"
       style="opacity:1;fill:#ffffff;fill-rule:evenodd;stroke:none"
       id="165"
       transform="matrix(1.25,0,0,1.25,105,5)"
       d="m 19.156,22.97 v -3.5233 -3.5233 l 6.1025,3.5233 -3.0513,1.7617 z" />
    <path
       inkscape:connector-curvature="0"
       style="opacity:1;fill:none;stroke:#ffffff;stroke-width:2;stroke-linecap:butt;stroke-linejoin:miter;stroke-miterlimit:9"
       id="166"
       transform="matrix(1.25,0,0,1.25,105,5)"
       d="m 5.5001,19.484 h 5.1492 l 5.625,-9.2355 h 3.0985 m -4.6959,6.8996 1.632,2.3347 h 2.9113 M 5.500199,10.2437 H 10.7586 l 1.4066,2.627" />
    <text
       x="105"
       y="48.75"
       id="167"
       style="font-size:13px;font-family:'Microsoft Sans Serif';opacity:1;fill:#000000;stroke:none"
       clip-path="url(#169_text_clipper)">
      <tspan
         id="171"
         dy="9.75pt">X</tspan>
    </text>
    <path
       inkscape:connector-curvature="0"
       id="173"
       transform="matrix(1.25,0,0,1.25,5,5)"
       style="opacity:1;fill:none;stroke:#a9a9a9;stroke-width:2;stroke-linecap:butt;stroke-linejoin:miter;stroke-miterlimit:9"
       d="m 31.179,5.2 c 3.8195,5.8918 3.8024,13.482 -0.04348,19.357" />
    <circle
       r="15"
       id="174"
       cx="15"
       cy="15"
       transform="matrix(1.25,0,0,1.25,5,5)"
       style="opacity:1;fill:#5bb27e;stroke:none" />
    <path
       inkscape:connector-curvature="0"
       style="opacity:1;fill:#ffffff;fill-rule:evenodd;stroke:none"
       id="175"
       transform="matrix(1.25,0,0,1.25,5,5)"
       d="M 8.5404,18.526 C 8.154759,18.14036 8.426559,17.3734 8.7512,17.0487 9.0693,16.7306 9.8857,16.65478 10.3397,17.03595 l 2.1904,1.7693 0.29084,-9.141104 c 0,-0.358289 0.60377,-0.924269 1.2316,-0.924269 0.74617,0 1.3151,0.576219 1.3151,0.95549 l 0.19096,5.347903 4.5059,1.703 c 0.18583,0.06373 0.43094,0.24909 0.43068,0.47598 l 0.0029,3.8276 -1.3849,2.3297 v 1.138 h -5.881 v -1.138 z" />
    <path
       inkscape:connector-curvature="0"
       style="opacity:1;fill:none;stroke:#ffffff;stroke-width:2;stroke-linecap:butt;stroke-linejoin:miter;stroke-miterlimit:9"
       id="176"
       transform="matrix(1.25,0,0,1.25,5,5)"
       d="m 10.482,12.156 c -1.418399,-2.2682 0.09104,-5.5872 2.7329,-6.0086 2.6015,-0.62394 5.2683,1.8624 4.8283,4.5011 l -0.06627,0.37741" />
    <text
       x="5"
       y="48.75"
       id="177"
       style="font-size:13px;font-family:'Microsoft Sans Serif';opacity:1;fill:#000000;stroke:none"
       clip-path="url(#179_text_clipper)">
      <tspan
         id="181"
         dy="9.75pt">MouseMove</tspan>
    </text>
  </g>
  <defs
     id="clips_hatches_and_gradients">
    <clipPath
       id="159_text_clipper">
      <rect
         id="160"
         width="52.779999"
         height="16.34"
         x="205"
         y="48.75" />
    </clipPath>
    <clipPath
       id="169_text_clipper">
      <rect
         id="170"
         width="13.26"
         height="16.34"
         x="105"
         y="48.75" />
    </clipPath>
    <clipPath
       id="179_text_clipper">
      <rect
         id="180"
         width="77.260002"
         height="16.34"
         x="5"
         y="48.75" />
    </clipPath>
  </defs>
</svg>

<?xml version="1.0" standalone="yes"?><!DOCTYPE svg PUBLIC "-//W3C//DTD SVG 1.1//EN" "http://www.w3.org/Graphics/SVG/1.1/DTD/svg11.dtd"[
<!ENTITY E8 'matrix(1.00 0.00 0.00 1.00 84.00 4.00 ) '><!ENTITY E3 'stroke:none;opacity:1;fill:rgb(68,154,223);'><!ENTITY E1 'stroke:rgb(169,169,169);fill:none;stroke-linecap:butt;stroke-miterlimit:9;opacity:1;stroke-width:1;stroke-linejoin:miter;'><!ENTITY E2 'matrix(1.00 0.00 0.00 1.00 164.00 4.00 ) '><!ENTITY E5 'stroke:rgb(255,255,255);fill:none;stroke-linecap:butt;stroke-miterlimit:9;opacity:1;stroke-width:2;stroke-linejoin:miter;'><!ENTITY E10 'stroke:none;fill-rule:evenodd;opacity:1;fill:rgb(255,255,255);'><!ENTITY E16 'matrix(1.00 0.00 0.00 1.00 4.00 4.00 ) '><!ENTITY E7 'matrix(1.00 0.00 0.00 1.00 0.00 0.00 ) '>
]><svg width="209.6642" height="52.82519" id="SvgGdi_output" xmlns="http://www.w3.org/2000/svg" xmlns:xlink="http://www.w3.org/1999/xlink"><rect id="background" height="100.00%" style="fill:rgb(255,255,255);" width="100.00%" y="0.00" x="0.00" /><g style="shape-rendering:auto;" id="root_group"><line y1="19.00" style="&E1;" id="216" x2="160.00" y2="19.00" x1="118.00" /><line y1="19.00" style="&E1;" id="217" x2="80.00" y2="19.00" x1="38.00" /><ellipse id="218" cy="15.00" cx="15.00" transform="&E2;" rx="15.00" ry="15.00" style="&E3;" /><path style="&E5;" transform="&E2;" id="219" d="M 20.824 23.115 20.824 7.098999 M 17.3572 17.48 17.3572 12.7339 M 13.8904 21.2046 13.8904 9.009602 M 10.4236 18.6248 10.4236 11.5896 M 6.9568 16.3923 6.9568 13.822 " /><text id="220" transform="&E7;" x="164.00px" y="39.00px" style="stroke:none;clip-path:url(#222_text_clipper);font-family:Microsoft Sans Serif;fill:rgb(0,0,0);font-size:8.25pt;opacity:1;"><tspan dy="8.25pt" id="224">Rescale</tspan></text><ellipse id="226" cy="15.00" cx="15.00" transform="&E8;" rx="15.00" ry="15.00" style="&E3;" /><path style="&E10;" transform="&E8;" id="227" d="M 19.156 13.888 19.156 10.3647 19.156 6.841399 25.2585 10.3647 22.2072 12.1264 z " /><path style="&E10;" transform="&E8;" id="228" d="M 19.156 22.97 19.156 19.4467 19.156 15.9234 25.2585 19.4467 22.2072 21.2084 z " /><path style="&E5;" transform="&E8;" id="229" d="M 5.5001 19.484 10.6493 19.484 16.2743 10.2485 19.3728 10.2485 M 14.6769 17.1481 16.3089 19.4828 19.2202 19.4828 M 5.500199 10.2437 10.7586 10.2437 12.1652 12.8707 " /><text id="230" transform="&E7;" x="84.00px" y="39.00px" style="stroke:none;clip-path:url(#232_text_clipper);font-family:Microsoft Sans Serif;fill:rgb(0,0,0);font-size:8.25pt;opacity:1;"><tspan dy="8.25pt" id="234">X</tspan></text><path transform="&E16;" id="236" style="stroke:rgb(169,169,169);fill:none;stroke-linecap:butt;stroke-miterlimit:9;opacity:1;stroke-width:2;stroke-linejoin:miter;" d="M 31.179 5.2 C 34.9985 11.0918 34.9814 18.682 31.13552 24.557 " /><ellipse id="237" cy="15.00" cx="15.00" transform="&E16;" rx="15.00" ry="15.00" style="stroke:none;opacity:1;fill:rgb(91,178,126);" /><path style="&E10;" transform="&E16;" id="238" d="M 8.5404 18.526 C 8.154759 18.14036 8.426559 17.3734 8.7512 17.0487 9.0693 16.7306 9.8857 16.65478 10.3397 17.03595 L 12.5301 18.80525 12.82094 9.664146 C 12.82094 9.305857 13.42471 8.739877 14.05254 8.739877 14.79871 8.739877 15.36764 9.316096 15.36764 9.695367 L 15.5586 15.04327 20.0645 16.74627 C 20.25033 16.81 20.49544 16.99536 20.49518 17.22225 L 20.49808 21.04985 19.11318 23.37955 19.11318 24.51755 13.23218 24.51755 13.23218 23.37955 z " /><path style="&E5;" transform="&E16;" id="239" d="M 10.482 12.156 C 9.063601 9.8878 10.57304 6.5688 13.2149 6.1474 15.8164 5.52346 18.4832 8.0098 18.0432 10.6485 L 17.97693 11.02591 " /><text id="240" transform="&E7;" x="4.00px" y="39.00px" style="stroke:none;clip-path:url(#242_text_clipper);font-family:Microsoft Sans Serif;fill:rgb(0,0,0);font-size:8.25pt;opacity:1;"><tspan dy="8.25pt" id="244">MouseMove</tspan></text></g><defs id="clips_hatches_and_gradients"><clipPath id="222_text_clipper"><rect x="164.00" y="39.00" width="44.66" height="13.83" id="223" /></clipPath><clipPath id="232_text_clipper"><rect x="84.00" y="39.00" width="11.22" height="13.83" id="233" /></clipPath><clipPath id="242_text_clipper"><rect x="4.00" y="39.00" width="65.38" height="13.83" id="243" /></clipPath></defs></svg>
